X: 242
T: No. 13.	 Op. 28
C: Fryderyk Chopin
%%abc-version 2.0
%%abcx-abcm2ps-target-version 5.9.1 (29 Sep 2008)
%%abc-creator hum2abc beta
%%abcx-conversion-date 2021/10/03 11:24:01
%%abc-edited-by Jędrzej Mróz
%%abc-edited-by Antoni Szymański
%%abc-edited-by Mateusz Mrugas
%%abcx-initial-encoding-date 2019-05-25
%%humdrum-veritas 3117498940
%%humdrum-veritas-data 1374885711
%%linebreak <none>
%%barnumbers 0
L: 1/8
M: 3/2
N: Derived from 028-1-BH-013.krn
P: Vingt-quatre | PRÉLUDES | pour le Piano |
Q: "Lento." 1/2=50
%%staves {1 2}
V: 1 clef=treble
V: 2 clef=bass
K: F#
[V:1] [A6F6C6][A6F6C6] | 
[V:2] F,,E,G,F,A,C, F,,E,G,F,A,C, | 
[V:1] [A6F6]B4G2 & x6E6 | 
[V:2] F,,E,G,F,A,C, C,,^^F,A,G,B,C, | 
[V:1] [A6F6C6][A4F4][A2F2] & x6C6 | 
[V:2] F,,E,G,F,A,C, F,,E,G,F,A,C, | 
[V:1] (5:4:5[A/F/] [B/G/] [A/F/] [G/E/] [A/F/][c2A2][B2G2]z [GC] & C6E4x2 | 
[V:2] F,,E,G,F,A,C, C,,^^F,A,G,B,C, | 
[V:1] [A6F6C6][c6A6C6] | 
[V:2] F,,E,G,F,A,C, F,,E,G,F,A,C, | 
[V:1] [f6A6F6][e6c6G6] | 
[V:2] D,,^^G,^B,A,DF, G,,^^F,A,^G,CE, | 
[V:1] !arpeggio!e2x8x2 & !arpeggio![d6G6F6][c4G4E4]z2 | 
[V:2] G,,^^F,A,G,^B,D, C,F,A,G,CE, | 
[V:1] z12 | 
[V:2] G,F,B,D,F,E, A,C,A,B,,A,G, | 
[V:1] {/A,2}[A6F6C6][A6F6C6] | 
[V:2] F,,E,G,F,A,C, F,,E,G,F,A,C, | 
[V:1] [A6F6]B4-B3/G/ & x6E6 | 
[V:2] F,,E,G,F,A,C, C,,^^F,A,G,B,C, | 
[V:1] [A4F4C4]>[A4F4C4]-(3[AFC][AFC][AFC] (3[AFC][AFC][AFC] | 
[V:2] F,,E,G,F,A,C, F,,E,G,F,A,C, | 
[V:1] [A2F2][BG][AF][GE][AF][c2A2][B2G2]z [GC-] & C6E4x2 | 
[V:2] F,,E,G,F,A,C, C,,^^F,A,G,B,C, | 
[V:1] [A6=E6C6]A4-A3/B/ & x6E6 | 
[V:2] F,,^E,G,F,A,C, F,,E,G,F,A,C, | 
[V:1] [c6A6=E6]d4d3/c/ & x6[E4A4]x2 | 
[V:2] F,,^E,G,F,A,C, F,,E,G,F,A,C, | 
[V:1] [c6A6=E6][B6G6D6] | 
[V:2] B,,F,G,^^F,A,C, B,,F,A,G,B,D, | 
[V:1] [A6^^F6C6]B4-B3/D/ & x6[G6B,6] | 
[V:2] D,,^^C,=E,D,^^F,A,, G,,C,E,D,G,G,, | 
[V:1] [G6B,6][A6C6] & E8x4 | 
[V:2] C,,^B,,D,C,E,G,, C,,B,,D,C,E,G,, | 
[V:1] [F4A,4]z2[B6D6] | 
[V:2] F,,^B,,D,C,F,F,, B,,,E,G,F,B,=B,, | 
[V:1] [G6B,6]A6 & E8x4 | 
[V:2] C,,^B,,D,C,E,G,, C,,B,,D,C,E,G,, | 
[V:1] [F8A,8]z2z2 | 
[V:2] F,,^B,,D,C,F,C,, F,,B,,D,C,F,E,, | 
[V:1] f6A4^B2 & z FFFFF FFFFFF | 
[V:2] D,,[A,D,][A,D,][A,D,][DD,][A,D,] [A,D,][CD,][^B,D,][A,D,][A,G,,][G,G,,] | 
[V:1] ^B4-B/c/e/d/c6 & EEEEEE EEEEEE | 
[V:2] C,,[G,G,,][G,C,][G,D,][G,C,][G,G,,] [G,C,][G,D,][G,C,][G,F,][G,E,][G,G,,] | 
[V:1] =e6G4A2 & z =EEEEE EEEEEE | 
[V:2] C,,[G,C,][G,C,][G,C,][CC,][G,C,] [G,C,][B,C,][A,C,][G,C,][G,F,,][F,F,,] | 
[V:1] A4-A/B/d/c/B4A2 & z DDDDD DDDDDC | 
[V:2] B,,,[F,F,,][F,B,,][F,C,][F,B,,][F,F,,] [F,B,,][F,C,][F,B,,][F,F,,][F,B,,][F,C,] | 
[V:1] A2G2G/A/c/B/A2G2-G/A/c/B/ & B,B,B,B,CC DDDDCC | 
[V:2] [F,D,][F,D,][F,D,][F,D,][F,C,][F,C,] [F,B,,][F,B,,][F,B,,][F,B,,][F,C,][F,C,] | 
[V:1] A4<G4-GAcA & B,B,DD^ED EDEDCC | 
[V:2] [F,D,][F,D,][F,B,,][F,B,,][G,B,,][F,B,,] [G,B,,][F,B,,][G,B,,][F,B,,][F,A,,][F,C,] | 
[V:1] x6G4G2 & F2F2F2[F2D2][^E2C2]D2 | 
[V:2] [F,D,][F,D,][A,D,][A,D,][G,D,G,,][G,D,G,,] [G,C,][G,C,][G,C,][G,C,][G,C,][G,C,] | 
[V:1] [G2D2B,2][A2C2A,2][G2D2B,2][A6C6A,6] | 
[V:2] [G,C,][C,F,,][C,F,,][C,F,,][C,F,,][E,F,,] [F,F,,]E,,G,,F,,A,,C,, | 
[V:1] [A6=E6]A4-A3/B/ & x6E6 | 
[V:2] A,,,^E,G,F,A,A,, F,,E,G,F,A,C, | 
[V:1] [c6A6=E6]d4-d3/c/ & x6[f6A6E6] | 
[V:2] F,,^E,G,F,A,C, F,,E,G,F,A,C, | 
[V:1] x6d6- & [f6c6=E6][B6D6] | 
[V:2] B,,^E,G,F,A,C, B,,E,G,F,B,B,, | 
[V:1] d6B4-B3/D/ & [B6^^F6C6][G6B,6] | 
[V:2] D,,^^C,=E,D,^^F,A,, G,,C,E,D,G,G,, | 
[V:1] e12 & x12 | 
[V:2] C,,^B,,D,C,E,G,, C,,B,,D,C,E,G,, | 
[V:1] f6g6 & [F6A,6][B6G6D6] | 
[V:2] F,,^B,,D,C,F,F,, B,,,^^C,E,D,B,G,, | 
[V:1] e6-e4-e3/f/ & G6A6 | 
[V:2] C,,^B,,D,C,E,G,, C,,B,,D,C,G,C,, | 
[V:1] [f12F12A,12] | 
[V:2] F,,,^B,,D,C,F,C,, F,,B,,D,C,F,C,, | 
[V:1] z A,A,A,DA,!accent!A4^^G/A/c/B/ | 
[V:2] x6A,CB,A,A,A, & F,,,[D,F,,][D,F,,][D,F,,][D,F,,][D,F,,] [D,F,,][D,F,,][D,F,,][C,F,,][C,F,,][C,F,,] | 
[V:1] A12 |]  
[V:2] [A,12C,12F,,12] |]
